source/icons/terminal.svg

<svg xmlns="http://www.w3.org/2000/svg" width="8" height="8" viewBox="0 0 8 8">
  <path d="M.09 0c-.06 0-.09.04-.09.09v7.81c0 .05.04.09.09.09h7.81c.05 0 .09-.04.09-.09v-7.81c0-.06-.04-.09-.09-.09h-7.81zm1.41.78l1.72 1.72-1.72 1.72-.72-.72 1-1-1-1 .72-.72zm2.5 2.22h3v1h-3v-1z" />
</svg>

<svg xmlns="http://www.w3.org/2000/svg" width="8" height="8" viewBox="0 0 8 8"><path d="M.09 0C.03 0 0 .04 0 .09V7.9c0 .05.04.09.09.09H7.9c.05 0 .09-.04.09-.09V.09C7.99.03 7.95 0 7.9 0H.09zM1.5.78L3.22 2.5 1.5 4.22.78 3.5l1-1-1-1L1.5.78zM4 3h3v1H4V3z"/></svg>
